public/static/img/user/setting.svg

<svg width="36" height="36" viewBox="0 0 36 36" fill="none" xmlns="http://www.w3.org/2000/svg">
<circle cx="18" cy="18" r="18" fill="white" fill-opacity="0.1"/>
<path d="M28.1362 18.0525L23.8622 10.3025C23.7135 10.0311 23.4946 9.80457 23.2284 9.64657C22.9622 9.48857 22.6585 9.4049 22.349 9.4043H13.8615C13.552 9.4049 13.2483 9.48857 12.9821 9.64657C12.7159 9.80457 12.497 10.0311 12.3482 10.3025L8.07424 18.0525C7.93057 18.3134 7.85522 18.6065 7.85522 18.9043C7.85522 19.2021 7.93057 19.4951 8.07424 19.756L12.3482 27.506C12.497 27.7775 12.7159 28.004 12.9821 28.162C13.2483 28.32 13.552 28.4037 13.8615 28.4043H22.349C22.6585 28.4037 22.9622 28.32 23.2284 28.162C23.4946 28.004 23.7135 27.7775 23.8622 27.506L28.1362 19.756C28.2799 19.4951 28.3553 19.2021 28.3553 18.9043C28.3553 18.6065 28.2799 18.3134 28.1362 18.0525ZM26.824 18.7825C26.8445 18.8198 26.8552 18.8616 26.8552 18.9042C26.8552 18.9467 26.8445 18.9885 26.824 19.0258L22.5575 26.7758C22.5363 26.8146 22.5052 26.847 22.4672 26.8696C22.4292 26.8922 22.3859 26.9042 22.3417 26.9043H13.8687C13.8246 26.9042 13.7812 26.8922 13.7433 26.8696C13.7053 26.847 13.6741 26.8146 13.653 26.7758L9.38649 19.0258C9.366 18.9885 9.35526 18.9467 9.35526 18.9042C9.35526 18.8616 9.366 18.8198 9.38649 18.7825L13.653 11.0325C13.6742 10.9938 13.7054 10.9615 13.7433 10.9389C13.7813 10.9163 13.8246 10.9044 13.8687 10.9043H22.3417C22.3859 10.9044 22.4292 10.9163 22.4672 10.9389C22.5051 10.9615 22.5363 10.9938 22.5575 11.0325L26.824 18.7825ZM18.0407 15.0008C15.8315 15.0008 14.0407 16.7915 14.0407 19.0008C14.0407 21.21 15.8315 23.0008 18.0407 23.0008C20.2497 23.0008 22.0407 21.21 22.0407 19.0008C22.0407 16.7915 20.2497 15.0008 18.0407 15.0008ZM18.0407 16.5008C19.4215 16.5008 20.5407 17.62 20.5407 19.0008C20.5407 20.3815 19.4215 21.5008 18.0407 21.5008C16.66 21.5008 15.5407 20.3815 15.5407 19.0008C15.5407 17.62 16.66 16.5008 18.0407 16.5008Z" fill="white"/>
</svg>

<svg width="36" height="36" fill="none" xmlns="http://www.w3.org/2000/svg"><circle cx="18" cy="18" r="18" fill="#fff" fill-opacity=".1"/><path d="m28.136 18.052-4.274-7.75a1.729 1.729 0 0 0-1.513-.898h-8.488a1.73 1.73 0 0 0-1.513.899l-4.274 7.75a1.766 1.766 0 0 0 0 1.703l4.274 7.75a1.73 1.73 0 0 0 1.513.898h8.488a1.73 1.73 0 0 0 1.513-.898l4.274-7.75a1.765 1.765 0 0 0 0-1.704Zm-1.312.73a.252.252 0 0 1 0 .244l-4.267 7.75a.247.247 0 0 1-.215.128h-8.473a.246.246 0 0 1-.216-.128l-4.267-7.75a.253.253 0 0 1 0-.244l4.267-7.75a.247.247 0 0 1 .216-.128h8.473a.246.246 0 0 1 .216.129l4.266 7.75Zm-8.783-3.781a4 4 0 1 0 0 8 4 4 0 0 0 0-8Zm0 1.5a2.5 2.5 0 1 1 0 5 2.5 2.5 0 0 1 0-5Z" fill="#fff"/></svg>
